X:1
T:Rhyddid, 76.76 D
T:Rhyddid, 76.76 D
T:Peroiaeth Hyfryd, by J. Parry, 1837
T:Public Domain Courtesy of the Cyber Hymnal™
C:Peroiaeth Hyfryd, by J. Parry, 1837
Z:Public Domain
Z:Courtesy of the Cyber Hymnal™
%%score ( 1 2 ) ( 3 4 )
L:1/8
Q:1/4=115
M:4/4
K:G
V:1 treble 
V:2 treble 
V:3 bass 
V:4 bass 
V:1
 [DG]2 | D2 [DG]2 [GB]2 (BA) | [EG]2 [FA]4 [DG]2 | (Be) d4 c2 | [GB]4 A4 | G6 [DG]2 | %6
 D2 [DG]2 [GB]2 (BA) | [EG]2 [FA]4 [DG]2 | (Be d4) c2 | [GB]4 A4 | G6 [GB]2 | %11
 [Ad]2 [GB]2 [Ge]2 [Fd]2 | c2 [DB]4 [GB]2 | G2 [GB]2 [Ad]2 (cB) | [FA]6 [DG]2 | %15
 D2 [DG]2 [GB]2 (BA) | [EG]2 [FA]4 [DG]2 | (Be d4) c2 | [GB]4 A4 | G6 |] %20
V:2
 x2 | D2 x2 F2 x2 | x8 | G6 (EG) | x4 (G2 F2) | G6 x2 | D2 x2 F2 x2 | x8 | G6 (EG) | x4 (G2 F2) | %10
 G6 x2 | x8 | (ED) x6 | G2 x2 G2 x2 | x8 | D2 x2 F2 x2 | x8 | G6 (EG) | x4 (G2 F2) | G6 |] %20
V:3
 [G,,B,]2 | [B,,G,]2 [G,,B,]2 [G,D]2 (DC) | [E,B,]2 [D,D]4 [G,B,]2 | ([E,G,][C,C]) [B,,D]4 (G,E) | %4
 [D,D]4 [D,C]4 | [G,B,]6 [G,,B,]2 | [B,,G,]2 [G,,B,]2 [G,D]2 (DC) | [E,B,]2 [D,D]4 [G,B,]2 | %8
 ([E,G,][C,C] [B,,D]4) (G,E) | [D,D]4 [D,C]4 | [G,B,]6 [G,D]2 | [F,D]2 [G,D]2 [C,C]2 [D,A,]2 | %12
 ([E,G,][F,A,]) [G,B,]4 [G,D]2 | [B,D]2 [G,D]2 [F,A,]2 [G,D]2 | [D,D]6 [G,,B,]2 | %15
 [B,,G,]2 [G,,B,]2 [G,D]2 (DC) | [E,B,]2 [D,D]4 [G,B,]2 | ([E,G,][C,C] [B,,D]4) (G,E) | %18
 [D,D]4 [D,C]4 | [G,,B,]6 |] %20
V:4
 x2 | x6 D,2 | x8 | x6 A,,2 | x8 | x8 | x6 D,2 | x8 | x6 A,,2 | x8 | x8 | x8 | x8 | x8 | x8 | %15
 x6 D,2 | x8 | x6 C,2 | x8 | x6 |] %20

